X: 1
T: The Last Pint
R: hornpipe
M: 4/4
L: 1/8
K: Gmaj
|:~G3E DEGA|BGAB AGED|~G3E DEGA|BGAB A3z|
~G3E DEGA|BGAB AGED|GABG BcAG|FDEF AGGF:||
|:GBdG BdGB|cBAG BGGF|GBdG BdGB|cBAG FDEF|
GBdG BdGB|cBAG BGGF|~G3E DEGA|BGAB A4:||
"Variation"
|BcBG cdcG|BcBG ded2|BcBG cdcG|BcBG AGE2|
BcBG cdcG|BcBG ded2|BcBG cdcG|BcBG AGE2|


Tune 223	Setting 25184

